X: 32875
T: Portobello
R: reel
M: 4/4
K: Edorian
Beef g2 fg|ageA gfdA|Beef g2 fg|ag f/e/d f2 ed|
ABef g2 fg|ageA gfdA|Beef g2 fg|ag f/e/d fefg|
a2 ag f2 fd|eggf dA e/f/g|a2 ag f2 fd|eggf fe e/f/g|
gaag f2 fd|eggf dA e/f/g|a2 ag f2 fd|eggf feed|
Begf e2> f2|g2 gagf f/e/d|Adgf d2> e2|edfa gfed|
Begf e2> f2|g2 gagf f/e/d|a2 ag f2 fd|eggf fefg|
ageA gfdA|aged ef g/f/e|agga gfdA|f2 fg fefg|
ageA gfdA|ag f/e/d ef g/a/b|agga gfdA|fffg feed||

